include/LD/assets/icons/action/new_custom72.svg

<?xml version="1.0"?><svg xmlns="http://www.w3.org/2000/svg" width="52" height="52" viewBox="0 0 52 52"><g fill="#fff"><path d="m47.6 2h-43.2c-1.4 0-2.4 1-2.4 2.4s1 2.4 2.4 2.4h19.2v5c-8.6 1.1-15.2 8.4-15.2 17.3v5.5c0 5.8 4.6 10.6 10.6 10.6h14.2c5.8 0 10.5-4.7 10.5-10.6v-5.6c0-8.9-6.6-16.2-15.2-17.4v-4.8h19.2c1.4 0 2.4-1 2.4-2.4s-1.1-2.4-2.5-2.4z m-10.4 27c0 0.1 0 0 0 0 0 2.3-1.8 4.2-4.2 4.2h-14c-2.3 0-4.1-1.8-4.2-4.2v0.1-0.1 0.1c0.1-6.2 5-11.1 11-11.1h0.3c6.1 0 11 5 11.1 11z"></path><circle cx="6.8" cy="46.8" r="3.2"></circle><circle cx="45.2" cy="46.8" r="3.2"></circle></g></svg>

<svg xmlns="http://www.w3.org/2000/svg" x="0px" y="0px"
	 width="52px" height="52px" viewBox="0 0 52 52" enable-background="new 0 0 52 52" xml:space="preserve">
<g>
	<path fill="#FFFFFF" d="M47.6,2H4.4C3,2,2,3,2,4.4s1,2.4,2.4,2.4h19.2v5C15,12.9,8.4,20.2,8.4,29.1v5.5c0,5.8,4.6,10.6,10.6,10.6
		h14.2c5.8,0,10.5-4.7,10.5-10.6V29c0-8.9-6.6-16.2-15.2-17.4V6.8h19.2c1.4,0,2.4-1,2.4-2.4S49,2,47.6,2z M37.2,29L37.2,29L37.2,29
		C37.2,29.1,37.2,29,37.2,29c0,2.3-1.8,4.2-4.2,4.2H19c-2.3,0-4.1-1.8-4.2-4.2v0.1V29c0,0,0,0,0,0.1c0.1-6.2,5-11.1,11-11.1h0.3
		C32.2,18,37.1,23,37.2,29z"/>
	<circle fill="#FFFFFF" cx="6.8" cy="46.8" r="3.2"/>
	<circle fill="#FFFFFF" cx="45.2" cy="46.8" r="3.2"/>
</g>
</svg>
